Newaita-dark/.LP/128/media-playback-pause.svg

<?xml version="1.0" encoding="UTF-8"?>
<svg xmlns="http://www.w3.org/2000/svg" xmlns:xlink="http://www.w3.org/1999/xlink" width="128pt" height="128pt" viewBox="0 0 128 128" version="1.1">
<g id="surface1">
<path style=" stroke:none;fill-rule:nonzero;fill:rgb(25.882354%,25.882354%,25.882354%);fill-opacity:1;" d="M 63.507812 122.71875 C 31.253906 122.71875 5.292969 96.757812 5.292969 64.507812 C 5.292969 32.253906 31.253906 6.292969 63.507812 6.292969 C 95.757812 6.292969 121.71875 32.253906 121.71875 64.507812 C 121.71875 96.757812 95.757812 122.71875 63.507812 122.71875 Z M 63.507812 112.136719 C 89.894531 112.136719 111.136719 90.894531 111.136719 64.507812 C 111.136719 38.121094 89.894531 16.875 63.507812 16.875 C 37.121094 16.875 15.875 38.121094 15.875 64.507812 C 15.875 90.894531 37.121094 112.136719 63.507812 112.136719 Z M 63.507812 112.136719 "/>
<path style=" stroke:none;fill-rule:nonzero;fill:rgb(25.882354%,64.705884%,96.078432%);fill-opacity:1;" d="M 42.335938 38.046875 L 47.628906 38.046875 C 50.550781 38.046875 52.921875 40.414062 52.921875 43.335938 L 52.921875 85.675781 C 52.921875 88.597656 50.550781 90.96875 47.628906 90.96875 L 42.335938 90.96875 C 39.414062 90.96875 37.046875 88.597656 37.046875 85.675781 L 37.046875 43.335938 C 37.046875 40.414062 39.414062 38.046875 42.335938 38.046875 Z M 42.335938 38.046875 "/>
<path style=" stroke:none;fill-rule:nonzero;fill:rgb(25.882354%,64.705884%,96.078432%);fill-opacity:1;" d="M 79.382812 38.046875 L 84.675781 38.046875 C 87.597656 38.046875 89.96875 40.414062 89.96875 43.335938 L 89.96875 85.675781 C 89.96875 88.597656 87.597656 90.96875 84.675781 90.96875 L 79.382812 90.96875 C 76.460938 90.96875 74.089844 88.597656 74.089844 85.675781 L 74.089844 43.335938 C 74.089844 40.414062 76.460938 38.046875 79.382812 38.046875 Z M 79.382812 38.046875 "/>
</g>
</svg>

<svg xmlns="http://www.w3.org/2000/svg" width="128pt" height="128pt" viewBox="0 0 128 128"><path d="M63.508 122.719c-32.254 0-58.215-25.961-58.215-58.211 0-32.254 25.96-58.215 58.215-58.215 32.25 0 58.21 25.96 58.21 58.215 0 32.25-25.96 58.21-58.21 58.21zm0-10.582c26.387 0 47.629-21.242 47.629-47.63 0-26.386-21.242-47.632-47.63-47.632-26.386 0-47.632 21.246-47.632 47.633 0 26.387 21.246 47.629 47.633 47.629zm0 0" fill="#424242"/><path d="M42.336 38.047h5.293a5.291 5.291 0 0 1 5.293 5.289v42.34a5.295 5.295 0 0 1-5.293 5.293h-5.293a5.291 5.291 0 0 1-5.29-5.293v-42.34a5.288 5.288 0 0 1 5.29-5.29zm0 0M79.383 38.047h5.293a5.291 5.291 0 0 1 5.293 5.289v42.34a5.295 5.295 0 0 1-5.293 5.293h-5.293a5.295 5.295 0 0 1-5.293-5.293v-42.34a5.291 5.291 0 0 1 5.293-5.29zm0 0" fill="#42a5f5"/></svg>
